X: 32
T: La Belle Catherine
%R: reel
B: Urbani & Liston "A Selection of Scotch, English Irish, and Foreign Airs", Edinburgh 1800, p.13 #2
F: http://www.vwml.org/browse/browse-collections-dance-tune-books/browse-urbani1800
Z: 2014 John Chambers <jc:trillian.mit.edu>
N: The 2nd strain has initial repeat but no final repeat; not fixed.
M: 2/4
L: 1/16
K: D
A2 |\
d4 (fede) | f2d2d2c2 | B4 (efed) | c2A2A2A2 |\
d4 (fede) | f2d2d2c2 | B2e2 (dcBA) | d4 D2 H:|
|: AG |\
F2A2A2G2 | F2A2A2G2 | F2A2 (dfed) | c2A2A2G2 |\
(FGAB) A2G2 | F2A2 A2(Bc) | d3e ({g}f2ed) | Ha4 |] "Da Capo"y8

%%sep 1 1 500
%%sep 1 1 500
